svg/charges/warhammer/ironjawz-symbol.svg

<?xml version="1.0" encoding="utf-8"?>
<!-- Generator: Adobe Illustrator 24.0.1, SVG Export Plug-In . SVG Version: 6.00 Build 0)  -->
<svg version="1.1" id="Layer_3" xmlns="http://www.w3.org/2000/svg"    xmlns:dc="http://purl.org/dc/elements/1.1/"
   xmlns:cc="http://creativecommons.org/ns#"
   xmlns:rdf="http://www.w3.org/1999/02/22-rdf-syntax-ns#" xmlns:xlink="http://www.w3.org/1999/xlink" x="0px" y="0px"
	 viewBox="0 0 1000 1000" style="enable-background:new 0 0 1000 1000;" xml:space="preserve"><metadata
   id="metadata97"><rdf:RDF><cc:Work
       rdf:about=""><dc:format>image/svg+xml</dc:format><dc:type
         rdf:resource="http://purl.org/dc/dcmitype/StillImage" /><dc:title></dc:title><dc:creator><cc:Agent><dc:title>http://bakadesign.dk/warhammer-40-000-icons/</dc:title></cc:Agent></dc:creator></cc:Work></rdf:RDF></metadata>
<g style="fill:#ff0000">
<g>
	<path d="M855.21,753.22L782.29,450.5c-0.54-2.26-3.7-2.43-4.48-0.24l-75.49,211.37c-0.64,1.8-3.06,2.11-4.14,0.53L626.9,557.32
		c-1.22-1.79-4.01-1.11-4.26,1.04l-21.18,180.05c-0.27,2.26-3.27,2.85-4.37,0.86L495.94,556.34c-0.94-1.71-3.44-1.58-4.2,0.22
		l-67.01,157.79c-0.73,1.71-3.06,1.93-4.09,0.39l-66.03-97.98c-0.98-1.45-3.14-1.36-3.99,0.17l-29.47,53.04
		c-1.02,1.84-3.77,1.5-4.31-0.54l-70.58-267.79c-1.39-5.28-8.92-5.19-10.18,0.12L154.8,744.05c-0.23,0.96,0.17,1.95,0.99,2.5
		l370.63,244.07c0.81,0.53,1.87,0.51,2.66-0.06l325.23-234.89C855.08,755.11,855.43,754.14,855.21,753.22z"/>
	<path d="M327.43,577.18l34.15-34.15l56.91,109.27l61.47-157.08l95.61,138.87l25.04-122.93l59.19,27.32l15.94-195.78l167.3-4.35
		c4-0.1,6.78-4.01,5.58-7.83l-54.5-172.22l-104.72,2.28l-34.15-86.51L352.47,5.78l-31.87,97.89l-154.8,36.42l-18.21,122.93
		l173.01,116.1L327.43,577.18z M569.97,274.1l89.83-61.16c22.88,15.77,36.54,44.6,40.98,77.4l-127.21-4.55
		C567.27,285.79,564.76,277.65,569.97,274.1z M557.36,399.61l-75.12,9.11l22.76-77.4L557.36,399.61z M416.22,176.52
		c42.75,0,77.4,34.65,77.4,77.4c0,42.75-34.65,77.4-77.4,77.4s-77.4-34.65-77.4-77.4C338.82,211.17,373.47,176.52,416.22,176.52z"/>
</g>
</g></svg>

<?xml version="1.0" encoding="UTF-8" standalone="no"?>
<!-- Generator: Adobe Illustrator 24.0.1, SVG Export Plug-In . SVG Version: 6.00 Build 0)  -->

<svg
   xmlns:dc="http://purl.org/dc/elements/1.1/"
   xmlns:cc="http://creativecommons.org/ns#"
   xmlns:rdf="http://www.w3.org/1999/02/22-rdf-syntax-ns#"
   xmlns:svg="http://www.w3.org/2000/svg"
   xmlns="http://www.w3.org/2000/svg"
   xmlns:sodipodi="http://sodipodi.sourceforge.net/DTD/sodipodi-0.dtd"
   xmlns:inkscape="http://www.inkscape.org/namespaces/inkscape"
   version="1.1"
   id="Layer_3"
   x="0px"
   y="0px"
   viewBox="0 0 707.68481 985.22302"
   xml:space="preserve"
   sodipodi:docname="ironjawz-symbol.svg"
   width="707.68481"
   height="985.22302"
   inkscape:version="0.92.3 (2405546, 2018-03-11)"><defs
   id="defs14" /><sodipodi:namedview
   pagecolor="#ffffff"
   bordercolor="#666666"
   borderopacity="1"
   objecttolerance="10"
   gridtolerance="10"
   guidetolerance="10"
   inkscape:pageopacity="0"
   inkscape:pageshadow="2"
   inkscape:window-width="640"
   inkscape:window-height="480"
   id="namedview12"
   showgrid="false"
   inkscape:zoom="0.236"
   inkscape:cx="352.41"
   inkscape:cy="491.00305"
   inkscape:window-x="0"
   inkscape:window-y="0"
   inkscape:window-maximized="0"
   inkscape:current-layer="Layer_3" /><metadata
   id="metadata97"><rdf:RDF><cc:Work
       rdf:about=""><dc:format>image/svg+xml</dc:format><dc:type
         rdf:resource="http://purl.org/dc/dcmitype/StillImage" /><dc:title></dc:title><dc:creator><cc:Agent><dc:title>http://bakadesign.dk/warhammer-40-000-icons/</dc:title></cc:Agent></dc:creator></cc:Work></rdf:RDF></metadata>
<g
   style="fill:#ff0000"
   id="g9"
   transform="translate(-147.59,-5.78)">
<g
   id="g7">
	<path
   d="M 855.21,753.22 782.29,450.5 c -0.54,-2.26 -3.7,-2.43 -4.48,-0.24 l -75.49,211.37 c -0.64,1.8 -3.06,2.11 -4.14,0.53 L 626.9,557.32 c -1.22,-1.79 -4.01,-1.11 -4.26,1.04 l -21.18,180.05 c -0.27,2.26 -3.27,2.85 -4.37,0.86 L 495.94,556.34 c -0.94,-1.71 -3.44,-1.58 -4.2,0.22 l -67.01,157.79 c -0.73,1.71 -3.06,1.93 -4.09,0.39 l -66.03,-97.98 c -0.98,-1.45 -3.14,-1.36 -3.99,0.17 l -29.47,53.04 c -1.02,1.84 -3.77,1.5 -4.31,-0.54 L 246.26,401.64 c -1.39,-5.28 -8.92,-5.19 -10.18,0.12 L 154.8,744.05 c -0.23,0.96 0.17,1.95 0.99,2.5 l 370.63,244.07 c 0.81,0.53 1.87,0.51 2.66,-0.06 L 854.31,755.67 c 0.77,-0.56 1.12,-1.53 0.9,-2.45 z"
   id="path3"
   inkscape:connector-curvature="0" />
	<path
   d="m 327.43,577.18 34.15,-34.15 56.91,109.27 61.47,-157.08 95.61,138.87 25.04,-122.93 59.19,27.32 15.94,-195.78 167.3,-4.35 c 4,-0.1 6.78,-4.01 5.58,-7.83 L 794.12,158.3 689.4,160.58 655.25,74.07 352.47,5.78 320.6,103.67 165.8,140.09 147.59,263.02 320.6,379.12 Z M 569.97,274.1 659.8,212.94 c 22.88,15.77 36.54,44.6 40.98,77.4 l -127.21,-4.55 c -6.3,0 -8.81,-8.14 -3.6,-11.69 z m -12.61,125.51 -75.12,9.11 22.76,-77.4 z M 416.22,176.52 c 42.75,0 77.4,34.65 77.4,77.4 0,42.75 -34.65,77.4 -77.4,77.4 -42.75,0 -77.4,-34.65 -77.4,-77.4 0,-42.75 34.65,-77.4 77.4,-77.4 z"
   id="path5"
   inkscape:connector-curvature="0" />
</g>
</g></svg>
